X:1
T:Gott in der Natur
T:Joseph Renner
T:Eduard Eyth
T:Gott in der Natur
T:Dem Männergesangverein in Nürnberg gewidmet
T:CPDL - Creative Commons Attribution Non Commercial 3.0
T:CPDL - Creative Commons Attribution Non Commercial 3.0
T:CPDL - Creative Commons Attribution Non Commercial 3.0
T:CPDL - Creative Commons Attribution Non Commercial 3.0
T:CPDL - Creative Commons Attribution Non Commercial 3.0
T:CPDL - Creative Commons Attribution Non Commercial 3.0
T:CPDL - Creative Commons Attribution Non Commercial 3.0
T:CPDL - Creative Commons Attribution Non Commercial 3.0
T:CPDL - Creative Commons Attribution Non Commercial 3.0
C:Joseph Renner
Z:Eduard Eyth
Z:CPDL - Creative Commons Attribution Non Commercial 3.0
%%score [ ( 1 2 ) ( 3 4 ) ] { ( 5 7 ) | ( 6 8 ) }
L:1/8
Q:1/4=96
M:4/4
K:C
V:1 treble-8 nm="Tenor"
V:2 treble-8 
V:3 bass nm="Bass"
V:4 bass 
V:5 treble nm="Harm.\noder\nOrgel"
V:7 treble 
V:6 bass 
V:8 bass 
V:1
"^Andante" z4 | z8 | z8 | z8 | z8 | z8 | z8 | z8 | z4 ||S!f! G4 | c4 G4 | e6 d2 | c6 B2 | c4 z4 | %14
w: |||||||||Der|Herr ist|Kö- nig,|groß und|hehr!|
!p! e4 d2 c2 | B4 e4 | ^d8 | e4 z2!f! B2 | e4 B4 | g6 ^f2 | e6 ^d2 | e4 z4 |!p! e4 d2 c2 | f4 e4 | %24
w: Wer kann sich|ihm ver-|glei-|chen? Der|Herr ist|Kö- nig,|groß und|hehr!|Wer kann sich|ihm ver-|
 e8 | d4 z4 |!ff! g4 f2 e2 | a6 f2 | e8 | d4 z4 | z8 | z8 | z4 z2!f! d2 | g6 ^f2 | e2 d2 c2 BA | %35
w: glei-|chen?|Wer kann sich|ihm ver-|glei-|chen?|||Ein|Kö- nig|weit in Land und *|
 G4 z4 | z8 | z8 | z4 z2 e2 | a6 ^g2 | ^f2 e2 d2 ^cB | A6 z2 | z8 | z8 | z2 A2 a4- | a2 g2 ^f2 e2 | %46
w: Meer!|||Ein|Kö- nig|weit in Land und *|Meer!|||Ein Kö-|* nig weit in|
 d2 e^f g2 z2 | z8 | z8 | z2 G2 g4- | g2 f2 e2 d2 | (c4 d4) | (e4 ^f4) | g6!p! G2 | %54
w: Land und * Meer!|||Ein Kö-|* nig weit in|Land _|und _|Meer, und|
 A2 G2!<(! c2 d2!<)! | e4 c2!f! c2 | d2 c2 d2 e2 | f4 c2 e2 | f2 e2 a2 g2 | (^f8 | g4 =f4 | e8- | %62
w: in des Him- mels|Rei- chen, und|in des Him- mels|Rei- chen, und|in des Him- mels|Rei-|||
 e6 d2) | c4 z4 | z4!f! G4 | c4 G4 | e6 d2 | c6 B2 | c4 z4 | z4!f! !>!B4 | !>!e4 !>!B4 | g6 ^f2 | %72
w: |chen.|Der|Herr ist|Kö- nig,|groß und|hehr!|Der|Herr ist|Kö- nig,|
 e6 ^d2 | e4 !>!B4 | !>!e4 !>!B4 | g6 =f2 | e6 d2 | c4 !>!c4 | !>!e4 !>!c4 |!ff! a8 | f8 | e8 | %82
w: groß und|hehr! Der|Herr ist|Kö- nig,|groß und|hehr! Der|Herr ist|Kö-|nig,|groß|
 d8 | c8- | c8- | c4 z4 | z8!fine! ||[M:3/2]!p![Q:1/2=72] e4 d4 c4 | (B4 e4) (^f2 ^g2) | a8 =g4 | %90
w: und|hehr!|_|||Ernst steht um|ihn _ die _|Wol- ken-|
 g8 e4 | f6 f2 e2 d2 | c4 B4 z4 |!p! z12 |!<(! e4 ^f4 ^g4!<)! | a8 =g4 | =f6 f2 e4 | d4 e4 ^f4 | %98
w: nacht in|eng- ge- schloss- ner|Run- de!||Ernst steht um|ihn die|Wol- ken- nacht|in eng- ge-|
 (g4 ^f4) e4 |!>(! e12 | ^d8!>)! z4 | z12 | z12 | z12 | z12 |!ff! B4 ^c4 ^d4 | e8 ^g4 | %107
w: schloss- * ner|Run-|de!|||||Er kommt her-|an mit|
 a8 (e2 ^f2) | ^g8!p! ^d4 | e12- | e8 e4 | =f8 (c2 d2) | (e12 | c8 d4) |!>(! e12- | e8!>)! z4 || %116
w: Ehr' und _|Pracht in|schwar-|* zer|Wet- ter- *|stun-||de!|_|
[K:A]"^Solo oder Halbchor" e4 d4 c4 | (a4 g4) f4 | d8!>(! f4 | e8!>)! d4 |!<(! (c4 B4) c4 | %121
w: Da gibt der|Him- * mel|weit und|breit von|sei- * nem|
 (e4!<)! d4) B4 | f12 |!>(! e12!>)! |!p!!<(! e4 d4 c4!<)! | a8 e4 |!f! a8 g4 | f8 e4 | %128
w: Wal- * ten|Kun-|de!|Da gibt der|Him- mel|weit und|breit von|
 (^d4 e4) f4 | (g4 f4) e4 | (^d8!>(! c4) | B8!>)! z4 |"^Tutti" z12 | z12 | z12 | z12 | %136
w: sei- * nem|Wal- * ten|Kun- *|de!|||||
!ff! B4 c4 ^d4 | e8 g4 | a8 (e2 f2) | g8!p! e4 | e8 =c4 | =c8 d4 |[Q:1/4=90]"^ritard." e12 | %143
w: da schau- en|Got- tes|Herr- lich- *|keit die|Völ- ker|in der|Run-|
!>(! !fermata!e8!>)!!D.S.! |] %144
w: de!|
V:2
 x4 | x8 | x8 | x8 | x8 | x8 | x8 | x8 | x4 || G4 | c4 G4 | e6 d2 | c6 B2 | c4 x4 | e4 d2 c2 | %15
w: |||||||||||||||
 B4 B4 | B8 | B4 x2 B2 | e4 B4 | g6 ^f2 | e6 ^d2 | e4 x4 | c4 B2 c2 | B4 c4 | c8 | B4 x4 | %26
w: |||||||||||
 e4 d2 c2 | c4 d4 | c8 | B4 x4 | x8 | x8 | x4 x2 d2 | g6 ^f2 | e2 d2 c2 BA | G4 x4 | x8 | x8 | %38
w: ||||||||||||
 x4 x2 e2 | a6 ^g2 | ^f2 e2 d2 ^cB | A6 x2 | x8 | x8 | x2 A2 ^f4- | f2 e2 d2 e2 | d2 =c2 B2 D2 | %47
w: ||||||||* * * Ein|
 d6 c2 | B2 A2 G2 AB | c2 G2 e4- | e2 d2 c2 d2 | (c4 B4) | (B4 d4) | d6 G2 | A2 G2 G2 G2 | %55
w: Kö- nig|weit in Land und *|Meer! * *||||||
 G4 E2 c2 | d2 c2 d2 c2 | c4 c2 e2 | f2 e2 f2 c2 | (c8 | B4 d4 | c8- | c6 B2) | G4 x4 | x4 G4 | %65
w: ||||||||||
 c4 G4 | c6 B2 | G4 G4 | G4 x4 | x4 B4 | e4 B4 | e6 ^d2 | B4 B4 | B4 B4 | e4 B4 | e6 d2 | c6 B2 | %77
w: ||||||||||||
 c4 c4 | e4 c4 | f8 | d8 | c8 | B8 | c8- | c8- | c4 x4 | x8 ||[M:3/2] e4 d4 c4 | B8 B4 | %89
w: ||||||||||||
 (c4 e4) d4 | e8 c4 | c6 d2 c2 A2 | c4 B4 x4 | e4 d4 c4 | B8 e4 | e8 (g2 d2) | c12 | c4 c4 c4 | %98
w: ||||Ernst steht um|ihn die|Wol- ken- *|nacht|_ _ _|
 B8 c4 | (G4 A4 ^A4) | B8 x4 | x12 | x12 | x12 | x12 | B4 B4 B4 | B8 e4 | e8 ^c4 | ^d8 d4 | %109
w: |||||||||||
 e8 =d4 | =c12- | c8 A4 | (c12 | A8 B4) | B12- | B8 x4 ||[K:A] c4 B4 A4 | (c4 B4) d4 | B8 d4 | %119
w: schwar- zer|Wet-|* ter~\-||||||||
 c8 B4 | (A4 G4) A4 | A8 A4 | (A8 B4) | B12 | c4 B4 A4 | c8 c4 | d8 d4 | d8 B4 | B8 B4 | B8 B4 | %130
w: |||||||||||
 (B8 ^A4) | B8 x4 | x12 | x12 | x12 | x12 | B4 B4 B4 | B8 e4 | e8 c4 | e8 B4 | =c8 A4 | A8 B4 | %142
w: ||||||||||||
 (=c4 B4 A4) | B8 |] %144
w: ||
V:3
 z4 | z8 | z8 | z8 | z8 | z8 | z8 | z8 | z4 ||!f! G,4 | C4 G,4 | E6 D2 | C6 B,2 | C4 z4 | %14
w: ||||||||||||||
!p! C4 B,2 A,2 | G,4 G,4 | ^F,8 | G,4 z2!f! B,2 | E4 B,4 | G,6 ^F,2 | E,6 ^D,2 | E,4 z4 | %22
w: ||||||||
!p! G,4 G,2 G,2 | G,4 G,4 | G,8 | G,4 z4 |!ff! G,4 G,2 G,2 | A,4 A,4 | G,8 | G,4 z2!f! G,2 | %30
w: |||||||* Der|
 C6 B,2 | A,2 G,2 F,2 E,D, | C,4 z4 | z8 | z8 | z4 z2 A,2 | D6 ^C2 | B,2 A,2 G,2 ^F,E, | %38
w: Herr ist|Kö- nig, groß und *|hehr!|||Der|Herr ist|Kö- nig, groß und *|
 D,4 z2 E,2 | A,6 ^G,2 | ^F,2 E,2 D,2 ^C,B,, | A,,6 A,2 | E6 D2 | ^C2 B,2 A,2 B,C | D2 z2 z2 D,2 | %45
w: hehr! *|||* Ein|Kö- nig|weit in Land und *|Meer! Ein|
 D6 =C2 | B,2 A,2 G,2 ^F,2 | G,2 z2 z4 | z8 | z4 z2 C,2 | C6 B,2 | A,4 B,4 | G,4 C4 | B,6!p! G,2 | %54
w: Kö- nig|weit in Land und|Meer!||Ein|Kö- nig|weit in|Land und|Meer! *|
 A,2 G,2!<(! C2 B,2!<)! | C4 G,2!f! C2 | _B,2 A,2 B,2 G,2 | A,4 A,2 C2 | C2 C2 C2 C2 | (A,8 | %60
w: ||||||
 G,4 A,4 | G,8- | G,8) | E,4 z4 | z4!f! G,4 | C4 G,4 | G,6 G,2 | G,4 F,4 | E,4 z4 | z4!f! B,4 | %70
w: ||||||||||
 E4 B,4 | B,4 B,4 | G,4 A,4 | G,4 B,4 | E4 B,4 | C6 C2 | G,4 G,4 | E,4 C4 | E4 C4 |!ff! C8 | A,8 | %81
w: |||||||||||
 G,8 | G,8 | C,8- | C,8- | C,4 z4 | z8 ||[M:3/2]!p! C4 B,4 A,4 | ^G,8 (A,2 B,2) | C8 B,4 | C8 G,4 | %91
w: ||||||||||
 A,6 A,2 A,2 A,2 | A,4 ^G,4 z4 |!p! C4 B,4 A,4 |!<(! (^G,4 A,4) B,4!<)! | C8 B,4 | (A,8 G,4) | %97
w: ||||||
 ^F,4 G,4 A,4 | G,8 G,4 |!>(! (E,4 ^F,8) | ^F,8!>)! z4 |!f! E,4 ^F,4 ^G,4 | A,8 B,4 | %103
w: ||||Er kommt her-|an mit|
 C8 (G,2 A,2) | B,12 |!ff! ^D,4 E,4 ^F,4 | ^G,8 B,4 | ^C8 C4 | ^B,8!p! B,4 | (=B,12 | A,12) | %111
w: Ehr' und _|Pracht!|||||||
 A,8 A,4 | A,12- | A,12 |!>(! ^G,12- | G,8!>)! z4 ||[K:A] E,4 E,4 E,4 | (E,4 D,2 E,2) F,4 | %118
w: Wet- ter-|stun-||de!|_|||
 (G,4 F,4)!>(! E,4 | A,8!>)! E,4 |!<(! E,8 E,4 | (E,4!<)! F,4) F,4 | (B,8!>(! A,4) | G,12!>)! | %124
w: ||||||
!p!!<(! E,4 E,4 E,4!<)! | E,8 A,4 |!f! A,8 A,4 | A,8 G,4 | (A,4 G,4) A,4 | (G,4 A,4) B,4 | %130
w: ||||||
 (B,8!>(! ^A,4) | B,8!>)! z4 |!f! E,4 F,4 G,4 | A,8 B,4 | =C8 (=G,2 A,2) | B,12 | %136
w: ||Da schau- en|Got- tes|Herr- lich- *|keit,|
!ff! ^D,4 E,4 F,4 | G,8 B,4 | C8 C4 | B,8!p! G,4 | A,8 E,4 | A,8 A,4 | (A,4!>(! G,4 F,4) | %143
w: |||||||
 !fermata!G,8!>)! |] %144
w: |
V:4
 x4 | x8 | x8 | x8 | x8 | x8 | x8 | x8 | x4 || G,4 | C4 G,4 | E6 D2 | C6 B,2 | C4 x4 | C4 B,2 A,2 | %15
w: |||||||||||||||
 G,4 E,4 | B,,8 | E,4 x2 B,2 | E4 B,4 | G,6 ^F,2 | E,6 ^D,2 | E,4 x4 | E,4 F,2 E,2 | D,4 C,4 | %24
w: |||||||||
 G,,8 | G,,4 x4 | C,4 C,2 C,2 | F,4 F,4 | G,8 | G,,4 x2 G,2 | C6 B,2 | A,2 G,2 F,2 E,D, | C,4 x4 | %33
w: |||||||||
 x8 | x8 | x4 x2 A,2 | D6 ^C2 | B,2 A,2 G,2 ^F,E, | D,4 x2 E,2 | A,6 ^G,2 | ^F,2 E,2 D,2 ^C,B,, | %41
w: ||||||||
 A,,6 z2 | z2 A,,2 A,4- | A,2 G,2 ^F,2 E,2 | D,2 ^C,2 D,2 z2 | z8 | z8 | z2 G,,2 G,4- | %48
w: |Ein Kö-|* nig weit in|Land und Meer!|||Ein Kö-|
 G,2 =F,2 E,2 D,2 | C,2 B,,2 C,2 z2 | z8 | z4 G,4 | E,4 D,4 | G,,6 G,2 | A,2 G,2 E,2 D,2 | %55
w: * nig weit in|Land und Meer!||||||
 C,4 C,2 C2 | _B,2 A,2 G,2 C,2 | F,4 F,2 _B,2 | A,2 G,2 F,2 E,2 | (D,8 | E,4 =F,4 | G,8 | G,,8) | %63
w: ||||||||
 C,4 x4 | x4 G,4 | C4 G,4 | C,6 F,2 | E,4 D,4 | C,4 x4 | x4 !>!B,4 | !>!E4 !>!B,4 | E,4 B,4 | %72
w: |||||||||
 G,4 ^F,4 | E,4 !>!B,4 | !>!E4 !>!B,4 | C6 C2 | C,4 G,4 | C,4 !>!C4 | !>!E4 !>!C4 | F,8 | F,8 | %81
w: |||||||||
 G,8 | G,,8 | C,8- | C,8- | C,4 x4 | x8 ||[M:3/2] C4 B,4 A,4 | ^G,8 E,4 | A,8 B,4 | C8 C,4 | %91
w: ||||||||||
 F,6 D,2 E,2 F,2 | E,4 E,4 x4 | z8 x4 | E,4 E,4 E,4 | A,8 E,4 | =F,6 F,2 C,4 | D,4 D,4 D,4 | %98
w: |||Ernst steht um|ihn die|Wol- ken- nacht||
 (E,4 D,4) C,4 | C,12 | B,,8 x4 | E,4 ^F,4 ^G,4 | A,8 B,4 | C8 G,2 A,2 | x12 | B,,4 B,,4 B,,4 | %106
w: ||||||||
 E,8 E,4 | A,8 A,4 | ^G,8 G,4 | (^G,12 | A,8 =G,4) | =F,8 F,4 | E,12- | E,12 | E,12- | E,8 x4 || %116
w: |||schwar-|* zer||||||
[K:A] A,,4 A,,4 A,,4 | A,,8 A,,4 | A,,8 A,,4 | A,,8 A,,4 | A,,8 A,,4 | (C,4 D,4) D,4 | ^D,12 | %123
w: |||||||
 E,12 | A,,4 A,,4 A,,4 | A,,8 =G,4 | F,8 E,4 | D,8 E,4 | (F,4 E,4) ^D,4 | (E,4 F,4) G,4 | F,12 | %131
w: ||||||||
 B,,8 x4 | E,4 F,4 G,4 | A,8 B,4 | =C8 (=G,2 A,2) | x12 | B,,4 B,,4 B,,4 | E,8 E,4 | A,,8 A,4 | %139
w: ||||||||
 E,8 E,4 | E,8 E,4 | E,8 E,4 | E,12 | E,8 |] %144
w: |||||
V:5
 G4 | c4 G4 | [Gce]6 [Bd]2 | [Ac]2 [GB]2 [FA]2 G2 | [Geg]6 [df]2 | [ce]2 [Bd]2 c2 [Ge]2 | %6
 [ca]6 [Adf]2 | [Gce]4 [FBd]4 | [EGc]4 || G4 | c4 G4 | [Gce]6 [FBd]2 | [CGc]6 [FGB]2 | [EGc]4 z4 | %14
 [Ece]4 [DBd]2 [CAc]2 | [B,GB]4 [GBe]4 | [^FB^d]8 | [GBe]4 z2 B2 | e4 B4 | [Beg]6 [A^d^f]2 | %20
 [EBe]6 [AB^d]2 | [GBe]4 z4 | [Gce]4 [GBd]2 [Gc]2 | [GBf]4 [Gce]4 | [Gce]8 | [GBd]4 z4 | %26
 [Geg]4 [Gdf]2 [Gce]2 | [cfa]6 [Adf]2 | [Gce]8 | [GBd]4 z2!f! g2 | [cc']6 [Bb]2 | %31
 [Aa]2 [Gg]2 [Ff]2 [Ge][Fd] | [Ec]4 [D^Fc]4 | [DGB]2 [Gg]4 [^F^f]2 | [Ee]2 [Dd]2 [Cc]2 [DB][CA] | %35
 [B,G]4 [A^cg]4 | [Ad^f]2 [dd']4 [^c^c']2 | [Bb]2 [Aa]2 [Gg]2 [A^f][Ge] | [^Fd]4 [E^Gd]4 | %39
 [EA^c]2 [Aa]4 [^G^g]2 | [^F^f]2 [Ee]2 [Dd]2 [E^c][DB] | [^CA]6 z2 | z4 z2 A2 | [Aa]6 [=G=g]2 | %44
 [^F^f]2 [Ee]2 [Dd]2 z2 | z2 d2 [dd']4- | [dd']2 [cc']2 [Bb]2 [Aa]2 | [Gg]2 z2 z2 G2 | %48
 [Gg]6 [Ff]2 | [Ee]2 [Dd]2 [Cc]2 [Cc]2 | [Ge]2 [FGd]2 [EGc]2 [DGc]2 | [EAc]4 [GBd]4 | %52
 [GBe]4 [Ad^f]4 | [Bdg]6 z2 | z8 | z8 | z8 | z8 | z8 | z8 | z8 | z4 G4 | c4 G4 | [Gce]6 [GBd]2 | %64
 [CGc]6 [DGB]2 | [EGc]4 z4 | z4 G4 | c4 G4 | [Geg]6 [Fdf]2 | [Ece]4 [^DB^d]4 | [EGBe]4 z4 | %71
 z4 [B,B]4 | [Ee]4 [B,B]4 | [Geg]6 [^F^d^f]2 | [EGe]4 [^FA^d]4 | [EGe]4 [G,G]4 | [Cc]4 [G,G]4 | %77
 [Geg]6 [Fdf]2 | [Ece]4 [EGc]4 | [Afa]6 [Afa]2 | [Fdf]6 [Fdf]2 | [Gce]2 G2 [Cc]2 [Ee]2 | %82
 [Bdg]6 [GBd]2 | [ce]8 | [eg]8 | [cec']6 C2 | C8 ||[M:3/2] z8 z4 | z12 | z12 | z12 | z12 | z12 | %93
 z12 | z12 | z12 | z12 | z12 | z12 | z12 | z12 | E4 ^F4 ^G4 | A8 =G4 | G8 (G2 A2) | [^D^FB]12 | %105
 [B,B]4 [^CB^c]4 [^DB^d]4 | [E^GBe]8 [Ge^g]4 | a8 (e2 ^f2) | [^B^d^g]8 [Bd]4 | [EBe]8 [EBe]4 | %110
 [E=ce]8 [Ece]4 | =f8 c2 d2 | [Ece]12 | [EAc]8 [EBd]4 | [E^GBe]12- | [EGBe]12 ||[K:A] z12 | z12 | %118
 z12 | z12 | z12 | z12 | z12 | z12 | z12 | z12 | z12 | z12 | z12 | z12 | z12 | B4 c4 ^d4 | %132
 e4 F4 G4 | A8 =G4 | =G8 G2 A2 | [^DFB]12 | [B,B]4 [CBc]4 [^DB^d]4 | [EGe]8 [Geg]4 | %138
 [Aa]8 [Ee]2 [Ff]2 | [GBg]8 [GBe]4 | [E=ce]8 [=CAc]4 | [=CA=c]8 [DBd]4 | [EA=c]4 [EGB]4 [FA]4 | %143
 !fermata![EGB]8 |] %144
V:6
!f!"^Bei etwaiger Klavierbegleitung werden die tiefen Bassnoten gespielt." [G,,G,]4 | %1
 [C,C]4 [G,,G,]4 | [C,C]2 [C,E,]2 [D,F,]2 [E,G,]2 | [F,A,]2 [G,B,]2 [A,C]2 [B,D]2 | %4
 [CE]2 [G,,B,,]2 [A,,C,]2 [B,,D,]2 | [C,E,]2 [D,F,]2 [E,G,]2 [C,G,C]2 | [F,,F,]4 [D,,D,]4 | %7
 [G,,G,]4 [G,,G,]4 | [C,,C,]4 ||!f! [G,,G,]4 | [C,C]4 [G,,G,]4 | [C,,C,]4 [G,,G,]4 | %12
 [E,,E,]4 [D,,D,]4 | [C,,C,]4 z4 |!p! [C,,C,]4 [D,,D,]4 | [E,,E,]4 [E,,E,]4 | [B,,,B,,]8 | %17
 [E,,E,]4 z2!f! [B,,B,]2 | [E,E]4 [B,,B,]4 | [E,,E,]4 [B,,,B,,]4 | [G,,G,]4 [^F,,^F,]4 | %21
 [E,,E,]4 z4 |!p! [C,,C,]4 [F,,F,]2 [E,,E,]2 | [D,,D,]4 [C,,C,]4 | [G,,G,]8 | [G,,G,]4 z4 | %26
!ff! [C,,C,]4 [C,,C,]2 [C,,C,]2 | [F,,F,]4 [F,,F,]4 | [G,,G,]8 | [G,,G,]4 z4 | %30
 z2 [C,E,]2 [D,F,]2 [E,G,]2 | [F,A,]2 [G,B,]2 [A,C]2 [B,D]2 | C4 [A,,A,]4 | %33
 [G,,G,]2 [G,,B,,]2 [A,,C,]2 [B,,D,]2 | [C,E,]2 [D,^F,]2 [E,G,]2 [F,A,]2 | G,4 [E,,E,]4 | %36
 [D,,D,]2 [D,^F,]2 [E,G,]2 [F,A,]2 | [G,B,]2 [A,^C]2 [B,D]2 [CE]2 | D4 [B,,B,]4 | %39
 [A,,A,]2 [A,,^C,]2 [B,,D,]2 [C,E,]2 | [D,^F,]2 [E,^G,]2 [F,A,]2 [G,B,]2 | A,6 z2 | %42
 z2 [A,,,A,,]2 [A,,A,]4- | [A,,A,]2 [G,,G,]2 [^F,,^F,]2 [E,,E,]2 | %44
 [D,,D,]2 [^C,,^C,]2 [D,,D,]2 [D,,D,]2 | [D,D]6 [=C,=C]2 | [B,,B,]2 [A,,A,]2 [G,,G,]2 [^F,,^F,]2 | %47
 [G,,G,]2 [G,,,G,,]2 [G,,G,]4- | [G,,G,]2 [=F,,=F,]2 [E,,E,]2 [D,,D,]2 | %49
 [C,,C,]2 [B,,,B,,]2 [C,,C,]2 [C,,C,]2 | [C,C]6 [B,,B,]2 | [A,,A,]4 [G,,G,]4 | [E,,E,]4 [D,,D,]4 | %53
 [G,,G,]6 z2 | z8 | z8 | z8 | z8 | z8 | z8 | z8 | z4!f! [G,,G,]4 | [C,C]4 [G,,G,]4 | %63
 [C,,C,]6 [F,,F,]2 | [E,,E,]4 [D,,D,]4 | [C,,C,]4 z4 | z4 [G,,G,]4 | [C,C]4 [G,,G,]4 | %68
 [C,,C,]6 [D,,D,]2 | [A,,A,]4 [B,,B,]4 | [E,,E,]4 z4 | z4 [B,,,B,,]4 | [E,,E,]4 [B,,,B,,]4 | %73
 [E,,E,]4 [B,,,B,,]4 | [E,,E,]4 [B,,,B,,]4 | [C,,C,]4 [G,,G,]4 | [C,,C,]4 [G,,G,]4 | %77
 [C,,C,]6 [C,,C,]2 | [C,,C,]4 [C,,C,]4 |!ff! [F,,F,]6 [F,,F,]2 | [A,,A,]4 [F,,F,]4 | %81
 [G,,G,]2 [G,,G,]2 [E,,E,]2 [C,,C,]2 | [G,,G,]6 [G,,G,]2 | [C,C]4 [C,,C,]4 | [C,C]4 [C,,C,]4 | %85
 [C,G,C]6 [C,,C,]2 | [C,,C,]8 ||[M:3/2] z12 | z12 | z12 | z12 | z12 | z12 | z12 | z12 | z12 | z12 | %97
 z12 | z12 | z12 | z12 |!f! [E,,E,]4 [E,,E,]4 [E,,E,]4 | [A,,A,]8 [B,,,B,,]4 | [C,,C,]8 [C,,C,]4 | %104
 [B,,,B,,]12 |!ff! [B,,,B,,]4 [B,,,B,,]4 [B,,,B,,]4 | [E,,E,]8 [E,,E,]4 | [A,,A,]8 [A,,A,]4 | %108
 [^G,,^G,]8 [G,,G,]4 |!p! [^G,,^G,]8 [G,,G,]4 | [A,,A,]8 [G,,G,]4 | [=F,,=F,]8 [F,,F,]4 | %112
 [E,,E,]12 | [E,,E,]12 |!>(! [E,,E,]12- | [E,,E,]12!>)! ||[K:A] z12 | z12 | z12 | z12 | z12 | z12 | %122
 z12 | z12 | z12 | z12 | z12 | z12 | z12 | z12 | z12 |!pp! ^D,4 E,4 F,4 |!f! G,4 x8 | %133
 [A,,A,]8 [B,,B,]4 | [=C,=C]8 [C,C]4 | [B,,B,]12 |!ff! [B,,,B,,]4 [B,,,B,,]4 [B,,,B,,]4 | %137
 [E,,E,]8 [E,,E,]4 | [A,,,A,,]8 [A,,,A,,]4 | [E,,E,]8!p! [E,,E,]4 | [E,,E,]12 | [E,,E,]12 | %142
 [E,,E,]12 |!>(! !fermata![E,,E,]8!>)! |] %144
V:7
 x4 | x8 | x8 | x8 | x8 | x8 | x8 | x8 | x4 || x4 | x8 | x8 | x8 | x8 | x8 | x8 | x8 | x8 | x8 | %19
 x8 | x8 | x8 | x8 | x8 | x8 | x8 | x8 | x8 | x8 | x8 | x8 | x8 | x8 | x8 | x8 | x8 | x8 | x8 | %38
 x8 | x8 | x8 | x8 | x8 | x8 | x8 | x8 | x8 | x8 | x8 | x8 | x8 | x8 | x8 | x8 | x8 | x8 | x8 | %57
 x8 | x8 | x8 | x8 | x8 | x8 | x8 | x8 | x8 | x8 | x8 | x8 | x8 | x8 | x8 | x8 | x8 | x8 | x8 | %76
 x8 | x8 | x8 | x8 | x8 | x8 | x8 | G4 C4 | G4 C4 | x8 | x8 ||[M:3/2] x12 | x12 | x12 | x12 | x12 | %92
 x12 | x12 | x12 | x12 | x12 | x12 | x12 | x12 | x12 | E4 ^D4 =D4 | C8 D4 | E8 E4 | x12 | x12 | %106
 x12 | [A^c]8 [Ac]4 | x12 | x12 | x12 | [Ac]8 [FA]4 | x12 | x12 | x12 | x12 ||[K:A] x12 | x12 | %118
 x12 | x12 | x12 | x12 | x12 | x12 | x12 | x12 | x12 | x12 | x12 | x12 | x12 | B4 B4 B4 | %132
 [EB]4 ^D4 =D4 | [=CE]8 D4 | E8 E4 | x12 | x12 | x12 | c8 c4 | x12 | x12 | x12 | x12 | x8 |] %144
V:8
 x4 | x8 | x8 | x8 | x8 | x8 | x8 | x8 | x4 || x4 | x8 | x8 | x8 | x8 | x8 | x8 | x8 | x8 | x8 | %19
 x8 | x8 | x8 | x8 | x8 | x8 | x8 | x8 | x8 | x8 | x8 | x8 | x8 | x8 | x8 | x8 | x8 | x8 | x8 | %38
 x8 | x8 | x8 | x8 | x8 | x8 | x8 | x8 | x8 | x8 | x8 | x8 | x8 | x8 | x8 | x8 | x8 | x8 | x8 | %57
 x8 | x8 | x8 | x8 | x8 | x8 | x8 | x8 | x8 | x8 | x8 | x8 | x8 | x8 | x8 | x8 | x8 | x8 | x8 | %76
 x8 | x8 | x8 | x8 | x8 | x8 | x8 | x8 | x8 | x8 | x8 ||[M:3/2] x12 | x12 | x12 | x12 | x12 | x12 | %93
 x12 | x12 | x12 | x12 | x12 | x12 | x12 | x12 | x12 | x12 | x12 | x12 | x12 | x12 | x12 | x12 | %109
 x12 | x12 | x12 | x12 | x12 | x12 | x12 ||[K:A] x12 | x12 | x12 | x12 | x12 | x12 | x12 | x12 | %124
 x12 | x12 | x12 | x12 | x12 | x12 | x12 | B,,4 B,,4 B,,4 | [E,,E,]4 [E,,E,]4 [E,,E,]4 | x12 | %134
 x12 | x12 | x12 | x12 | x12 | x12 | x12 | x12 | x12 | x8 |] %144

